Resource/Icons/Material/LibDetailedListView.svg

<svg id="Layer_1" data-name="Layer 1" xmlns="http://www.w3.org/2000/svg" viewBox="0 0 611 611"><title>LibDetailedListView</title><path id="path3001" d="M127.29,342.91h84.26V258.65H127.29v84.26h0Zm0,105.39h84.26V364H127.29V448.3Zm0-210.79h84.26V152.74H127.29v84.77h0Zm105.39,105.4h253V258.65h-253v84.26h0Zm0,105.39h253V364h-253V448.3h0Zm0-295.56v84.77h253V152.74h-253Z" transform="translate(0 0.02)" fill="#fff"/><path id="path3003" d="M0,0H611V611H0V0Z" transform="translate(0 0.02)" fill="none"/><rect id="rect3005" x="26.48" y="24.46" width="560.07" height="560.07" fill="none" stroke="#fff" stroke-miterlimit="10" stroke-width="33"/></svg>

<?xml version="1.0" encoding="utf-8"?>
<!-- Generator: Adobe Illustrator 19.2.1, SVG Export Plug-In . SVG Version: 6.00 Build 0)  -->
<svg version="1.1" id="Layer_1" xmlns="http://www.w3.org/2000/svg" xmlns:xlink="http://www.w3.org/1999/xlink" x="0px" y="0px"
	 viewBox="0 0 611 611" style="enable-background:new 0 0 611 611;" xml:space="preserve">
<style type="text/css">
	.st0{fill:#FFFFFF;}
	.st1{fill:none;}
	.st2{fill:none;stroke:#FFFFFF;stroke-width:33;stroke-miterlimit:10;}
</style>
<title>LibDetailedListView</title>
<path id="path3001" class="st0" d="M127.3,342.9h84.3v-84.3h-84.3V342.9L127.3,342.9L127.3,342.9z M127.3,448.3h84.3V364h-84.3
	V448.3z M127.3,237.5h84.3v-84.8h-84.3V237.5L127.3,237.5z M232.7,342.9h253v-84.3h-253V342.9L232.7,342.9L232.7,342.9z
	 M232.7,448.3h253V364h-253V448.3L232.7,448.3z M232.7,152.7v84.8h253v-84.8L232.7,152.7L232.7,152.7z"/>
<path id="path3003" class="st1" d="M0,0h611v611H0V0z"/>
<rect id="rect3005" x="26.5" y="24.4" class="st2" width="560.1" height="560.1"/>
</svg>
